symbols/web/bookmark_add/materialsymbolsoutlined/bookmark_add_wght100gradN25fill1_48px.svg

<svg xmlns="http://www.w3.org/2000/svg" height="48" width="48"><path d="M12.6 38.1V11.2q0-1.05.8-1.875t1.9-.825h12.65q-.7 1-1.1 2.2-.4 1.2-.4 2.45 0 3.45 2.275 5.85Q31 21.4 34.3 21.55q.35.1.55.1.2 0 .55-.1V38.1L24 33.2Zm21.7-20.2v-4.15h-4.15v-1.1h4.15V8.5h1.1v4.15h4.15v1.1H35.4v4.15Z"/></svg>

<svg xmlns="http://www.w3.org/2000/svg" height="48" width="48"><path d="M12.6 38.1V11.2Q12.6 10.15 13.4 9.325Q14.2 8.5 15.3 8.5H27.95Q27.25 9.5 26.85 10.7Q26.45 11.9 26.45 13.15Q26.45 16.6 28.725 19Q31 21.4 34.3 21.55Q34.65 21.65 34.85 21.65Q35.05 21.65 35.4 21.55V38.1L24 33.2ZM34.3 17.9V13.75H30.15V12.65H34.3V8.5H35.4V12.65H39.55V13.75H35.4V17.9Z"/></svg>
